X: 6784
T: Chapel Bell, The
R: jig
M: 6/8
K: Edorian
|:B2E EFA|B/c/de d2f|edB BAF|d3 cdc|
B2E EFA|B/c/de d2f|edB BAF|1 AFE EF/G/A:|2 AFE EF/G/A||
|:B2e efe|def f2e|dBB BAF|d3 cdc|
B2e efe|def f2e|dBB BAF|1 AFE EF/G/A:|2 AFE EF/G/A||

